src/img/paper.svg

<svg width="100" height="100" viewBox="0 0 100 100" fill="none" xmlns="http://www.w3.org/2000/svg">
<path d="M75.725 72.1823C76.3807 72.8383 77.4445 72.8382 78.1004 72.1821C78.7563 71.5262 78.7563 70.4626 78.1002 69.8067C77.5528 69.2594 76.8977 68.8837 76.2027 68.6794V68.1245C76.2027 67.1969 75.4505 66.4448 74.523 66.4448C73.5955 66.4448 72.8433 67.1969 72.8433 68.1245V69.0117C72.4555 69.2159 72.0915 69.4808 71.7656 69.8067C70.0192 71.553 70.0192 74.3947 71.7656 76.1413L74.9046 79.2803C75.3413 79.717 75.3413 80.4272 74.9046 80.8639C74.4679 81.3006 73.7577 81.3006 73.321 80.8639C72.6649 80.2081 71.6017 80.2081 70.9454 80.8639C70.2895 81.5198 70.2895 82.5834 70.9454 83.2395C71.4928 83.7869 72.1479 84.1625 72.8431 84.3667V84.9215C72.8431 85.849 73.5953 86.6012 74.5228 86.6012C75.4503 86.6012 76.2025 85.849 76.2025 84.9215V84.0341C76.5903 83.8299 76.9542 83.5652 77.28 83.2393C79.0264 81.4929 79.0264 78.6512 77.28 76.9047L74.141 73.7657C73.7043 73.329 73.7043 72.6188 74.141 72.1821C74.5778 71.7455 75.2881 71.7457 75.725 72.1823Z" fill="#616F8A"/>
<path d="M74.523 58.0458C74.5025 58.0458 74.4822 58.0464 74.4618 58.0466V16.9032C74.4618 14.7832 73.6301 12.7895 72.1197 11.2896C70.6311 9.81162 68.6676 9 66.596 9C66.5776 9 66.5586 9 66.5399 9.00017H34.5643C33.6366 9.00017 32.8846 9.75233 32.8846 10.6799C32.8846 11.6074 33.6366 12.3595 34.5643 12.3595H66.5519C66.5624 12.3594 66.5732 12.3594 66.5839 12.3594C67.7742 12.3594 68.8982 12.8253 69.7523 13.6734C70.6229 14.5378 71.1023 15.6848 71.1023 16.9032V58.3646C63.6516 59.7649 57.7648 65.6519 56.3644 73.1026H33.5736C33.1282 73.1026 32.7008 73.2797 32.3859 73.5946C32.071 73.9097 31.8939 74.3369 31.8939 74.7823V81.0059C31.8939 83.5113 29.8556 85.5498 27.35 85.5498C24.8445 85.5498 22.8062 83.5113 22.8062 81.0059V16.9032C22.8062 15.2054 22.2661 13.6322 21.3516 12.3427C22.1726 12.2326 22.8062 11.5309 22.8062 10.6799C22.8062 9.75233 22.0542 9.00017 21.1265 9.00017H14.9096C14.9074 9.00017 14.9053 9 14.9031 9C10.5453 9 7 12.5453 7 16.9032V23.1268C7 24.0543 7.75199 24.8065 8.67968 24.8065H19.4471V81.0059C19.4471 85.3637 22.9924 88.9091 27.3504 88.9091H60.8241C64.2075 92.6476 69.0957 95.0002 74.5231 95.0002C84.7114 95.0002 93.0002 86.7114 93.0002 76.5231C93.0002 66.3348 84.7113 58.0458 74.523 58.0458ZM19.4471 21.4471H10.3594V16.9032C10.3594 14.3985 12.3965 12.3605 14.9009 12.3594C14.9016 12.3594 14.9024 12.3595 14.9031 12.3595H14.9095C17.412 12.3631 19.447 14.4 19.447 16.9032L19.4471 21.4471ZM33.8133 85.5496C34.72 84.2635 35.2533 82.6955 35.2533 81.0057V76.4618H56.0466C56.0466 76.4822 56.0458 76.5025 56.0458 76.5228C56.0458 79.7992 56.9041 82.8784 58.4061 85.5494L33.8133 85.5496ZM74.523 91.6406C66.187 91.6406 59.4051 84.8589 59.4051 76.523C59.4051 68.187 66.187 61.4051 74.523 61.4051C82.8589 61.4051 89.6406 68.187 89.6406 76.523C89.6406 84.8589 82.8589 91.6406 74.523 91.6406Z" fill="#616F8A"/>
<path d="M91.3207 56.4556H84.6019C83.6744 56.4556 82.9222 55.7034 82.9222 54.7759V19.0786C82.9222 18.865 82.9631 18.6534 83.0423 18.4548L86.4017 10.0562C86.6569 9.41843 87.2745 9.00036 87.9613 9.00036C88.6481 9.00036 89.2659 9.41843 89.5209 10.0562L92.8803 18.4548C92.9595 18.6534 93.0004 18.8648 93.0004 19.0786V54.7759C93.0004 55.7034 92.2482 56.4556 91.3207 56.4556ZM89.641 53.0962V22.4382H86.2816V53.0962H89.641ZM87.9613 15.2028L86.4109 19.0786H89.5116L87.9613 15.2028Z" fill="#616F8A"/>
<path d="M53.3189 24.8065C54.2464 24.8065 54.9986 24.0544 54.9986 23.1268C54.9986 22.1993 54.2466 21.4471 53.3189 21.4471L40.5904 21.447C39.6628 21.447 38.9107 22.1991 38.9107 23.1267C38.9107 24.0542 39.6627 24.8064 40.5904 24.8064L53.3189 24.8065Z" fill="#616F8A"/>
<path d="M31.2049 38.2441L62.7036 38.2443C63.6311 38.2443 64.3832 37.4921 64.3832 36.5646C64.3832 35.6371 63.6311 34.8849 62.7036 34.8849L31.2049 34.8848C30.2773 34.8848 29.5252 35.6369 29.5252 36.5645C29.5252 37.492 30.2772 38.2441 31.2049 38.2441Z" fill="#616F8A"/>
<path d="M62.7036 41.6034L31.2049 41.6032C30.2773 41.6032 29.5252 42.3554 29.5252 43.2829C29.5252 44.2104 30.2772 44.9626 31.2049 44.9626L62.7036 44.9628C63.6311 44.9628 64.3832 44.2106 64.3832 43.2831C64.3832 42.3556 63.6311 41.6034 62.7036 41.6034Z" fill="#616F8A"/>
<path d="M62.7036 48.3221L31.2049 48.322C30.2773 48.322 29.5252 49.0741 29.5252 50.0017C29.5252 50.9292 30.2772 51.6814 31.2049 51.6814L62.7036 51.6815C63.6311 51.6815 64.3832 50.9294 64.3832 50.0018C64.3832 49.0743 63.6311 48.3221 62.7036 48.3221Z" fill="#616F8A"/>
<path d="M45.9065 58.4004C46.8342 58.4004 47.5862 57.6482 47.5862 56.7207C47.5862 55.7932 46.8342 55.041 45.9065 55.041H31.2049C30.2772 55.041 29.5252 55.7932 29.5252 56.7207C29.5252 57.6482 30.2772 58.4004 31.2049 58.4004H45.9065Z" fill="#616F8A"/>
<path d="M62.7037 55.041H59.3443C58.4168 55.041 57.6646 55.7932 57.6646 56.7207C57.6646 57.6482 58.4168 58.4004 59.3443 58.4004H62.7037C63.6312 58.4004 64.3833 57.6482 64.3833 56.7207C64.3833 55.7932 63.6312 55.041 62.7037 55.041Z" fill="#616F8A"/>
<path d="M31.2049 65.1191L46.9543 65.1193C47.8818 65.1193 48.634 64.3671 48.634 63.4396C48.634 62.5121 47.882 61.7599 46.9543 61.7599L31.2049 61.7598C30.2773 61.7598 29.5252 62.5119 29.5252 63.4394C29.5252 64.367 30.2772 65.1191 31.2049 65.1191Z" fill="#616F8A"/>
<path d="M27.8462 12.3597C28.7739 12.3597 29.5259 11.6076 29.5259 10.68C29.5259 9.75252 28.7739 9.00036 27.8462 9.00036H27.845C26.9173 9.00036 26.166 9.75252 26.166 10.68C26.166 11.6076 26.9185 12.3597 27.8462 12.3597Z" fill="#616F8A"/>
<path d="M52.6249 55.041C51.6973 55.041 50.9458 55.7932 50.9458 56.7207C50.9458 57.6482 51.6983 58.4004 52.626 58.4004C53.5537 58.4004 54.3057 57.6482 54.3057 56.7207C54.3057 55.7932 53.5536 55.041 52.626 55.041H52.6249Z" fill="#616F8A"/>
</svg>

<svg width="100" height="100" fill="none" xmlns="http://www.w3.org/2000/svg"><path d="M75.725 72.182a1.68 1.68 0 1 0 2.375-2.375 4.454 4.454 0 0 0-1.897-1.128v-.555a1.68 1.68 0 0 0-3.36 0v.888a4.484 4.484 0 0 0-1.078 7.13l3.14 3.138a1.12 1.12 0 0 1-1.584 1.584 1.68 1.68 0 0 0-2.376 2.376 4.45 4.45 0 0 0 1.898 1.127v.554a1.68 1.68 0 0 0 3.36 0v-.887a4.484 4.484 0 0 0 1.078-7.13l-3.14-3.138a1.12 1.12 0 0 1 1.584-1.584z" fill="#616F8A"/><path d="M74.523 58.046h-.061V16.904a7.86 7.86 0 0 0-2.342-5.613A7.8 7.8 0 0 0 66.596 9H34.564a1.68 1.68 0 0 0 0 3.36H66.584a4.47 4.47 0 0 1 3.168 1.313 4.523 4.523 0 0 1 1.35 3.23v41.462c-7.45 1.4-13.337 7.287-14.738 14.738h-22.79a1.68 1.68 0 0 0-1.68 1.68v6.223a4.55 4.55 0 0 1-4.544 4.544 4.549 4.549 0 0 1-4.544-4.544V16.903c0-1.698-.54-3.27-1.454-4.56A1.679 1.679 0 0 0 21.126 9h-6.223C10.545 9 7 12.545 7 16.903v6.224c0 .927.752 1.68 1.68 1.68h10.767v56.199c0 4.358 3.545 7.903 7.903 7.903h33.474C64.207 92.648 69.096 95 74.524 95 84.71 95 93 86.711 93 76.523s-8.289-18.477-18.477-18.477zM19.447 21.447H10.36v-4.544a4.549 4.549 0 0 1 4.542-4.544h.008a4.55 4.55 0 0 1 4.538 4.544v4.544zM33.813 85.55a7.861 7.861 0 0 0 1.44-4.544v-4.544h20.794l-.001.06c0 3.277.858 6.356 2.36 9.027H33.813zm40.71 6.09c-8.336 0-15.118-6.781-15.118-15.117 0-8.336 6.782-15.118 15.118-15.118s15.118 6.782 15.118 15.118-6.782 15.118-15.118 15.118z" fill="#616F8A"/><path d="M91.32 56.456h-6.718a1.68 1.68 0 0 1-1.68-1.68V19.079c0-.214.041-.426.12-.624l3.36-8.399a1.68 1.68 0 0 1 3.119 0l3.36 8.399c.079.198.12.41.12.624v35.697a1.68 1.68 0 0 1-1.68 1.68zm-1.679-3.36V22.438h-3.36v30.658h3.36zm-1.68-37.893l-1.55 3.876h3.1l-1.55-3.876zM53.32 24.807a1.68 1.68 0 0 0 0-3.36H40.59a1.68 1.68 0 0 0 0 3.36H53.32zM31.205 38.243h31.499a1.68 1.68 0 0 0 0-3.36h-31.5a1.68 1.68 0 0 0 0 3.36zm31.499 3.36h-31.5a1.68 1.68 0 0 0 0 3.359h31.5a1.68 1.68 0 0 0 0-3.36zm0 6.718h-31.5a1.68 1.68 0 0 0 0 3.36h31.5a1.68 1.68 0 0 0 0-3.36zM45.907 58.4a1.68 1.68 0 0 0 0-3.359H31.205a1.68 1.68 0 0 0 0 3.36h14.702zm16.797-3.359h-3.36a1.68 1.68 0 0 0 0 3.36h3.36a1.68 1.68 0 0 0 0-3.36zm-31.5 10.078h15.75a1.68 1.68 0 0 0 0-3.36h-15.75a1.68 1.68 0 0 0 0 3.36zm-3.358-52.76a1.68 1.68 0 0 0 0-3.359h-.001a1.68 1.68 0 1 0 .001 3.36zm24.779 42.682a1.68 1.68 0 1 0-.002 3.359 1.68 1.68 0 0 0 .003-3.359h-.001z" fill="#616F8A"/></svg>
